X:35
T:Charlie Harris's No. 1
Z: id:dc-reel-34
M:C
L:1/8
K:D Major
dB|AFDF EFDF|AFAB e2dB|AFDF EFDF|AFAB d2:|!
AB|defd efdB|AFAB e2dB|defd efdB|AFAB d2AB|!
defd efdB|AFAB e2dB|dff2 aff2|afef d2|]!

